X:33
T:My Darling Asleep
R:jig
O:Ireland
M:6/8
L:1/8
K:D
(d/e/) | "D" fdd   "A" cAA | "Em" BAG "D" A2 G | "D" FAA     def | "G" gfg "A" eag |
         "D" fdd   "A" cAA | "G" BAG "D" A2 G | "D" FAA "G" def | "A" gec  "D" d2 :|
(A/G/) | "D" FAA  BAG | "D" FAA  "G" B2G | "D" FAA     def | "Em" gfg "A" eag |
         "D" fdd   "A" cAA | "G" BAG "D" A2 G | "D" FAA "G" def | "A" gec  "D" d2 :|
